!!!OTL: Nonnenlied.
!!!OTL-incipit: DES ABENDS WENN ICH SCHLAFEN GEHE
!!!ARE: Europa, Mitteleuropa, Deutschland, Niederrhein
!!!SCT: Z1246
!!!TXL: @@DE
!!!YEM: Copyright 1995, estate of Helmut Schaffrath.
**kern	**text
*ICvox	*
*M4/4	*
*met(c)	*
*k[f#]	*
*G:	*
!LO:TX:a:t=Vom Niederrhein.	!
{4d	Des
=1	=1
8gL	A-
8f#J	.
8eL	-bends,
8dJ	.
4d	wenn
4g	ich
=2	=2
4f#	ſchlafen
4g	.
(>2a	ge-
=3	=3
2g)	.
2d}	-he,
=4	=4
{(4.g	ſo
8b/)	.
(4.a	ge-
8cc/)	.
=5	=5
4b/	-denk
4b/	ich
4a	an
4a	mein
=6	=6
2.g	Schatʒ,
4r}	.
=7	=7
{(4.b	komm,
8dd)	.
4cc	lin-
4b	-dre
=8	=8
4a	mei-
4g	-ne
2a}	Pein,
=9	=9
{(4g	ich
8.aL)	.
16bJ	.
(4a	mag
8.b/L)	.
16ccJ	.
=10	=10
4b/	ger-
4b/	-ne
8bqq	.
4a	bei
4a	dir
=11	=11
2g	ſeyn!
4r}	.
==	==
!!!AGN: Liebes - Lied
!!!ONB: ESAC (Essen Associative Code) Database: ZUCCAL
!!!AMT: simple quadruple
!!!AIN: vox
!!!EED: Helmut Schaffrath
!!!EEV: 1.0
!!!RDF**kern: >= above
!!!GTL: V. Lieder der Minne.
!!!URL-scan: https://www.digitale-sammlungen.de/de/view/bsb11160573?page=459
!!!ENC: Anna Maria Matuszewska
!!!EEV: 2025/02/06
*-	*-
